public/images/marquee/slack.svg

<svg xmlns="http://www.w3.org/2000/svg" fill="none" viewBox="0 0 138 36">
  <path fill="#CFD1D7" d="m44.3105 28.2433 1.708-3.9668c1.8457 1.3773 4.2975 2.0936 6.7217 2.0936 1.7906 0 2.92-.6887 2.92-1.7355-.0275-2.9201-10.7161-.6336-10.7987-7.9613-.0275-3.719 3.2782-6.5839 7.9613-6.5839 2.7823 0 5.5647.6887 7.5481 2.2589l-1.5978 4.0495c-1.8181-1.157-4.077-1.9834-6.2258-1.9834-1.46 0-2.4242.6886-2.4242 1.5702.0276 2.8649 10.7988 1.2947 10.9089 8.2919 0 3.8016-3.223 6.4737-7.8511 6.4737-3.3883 0-6.5012-.7989-8.8704-2.5069Zm65.5365-5.3993c-.854 1.4876-2.452 2.5068-4.298 2.5068-2.727 0-4.931-2.2038-4.931-4.931 0-2.7273 2.204-4.9311 4.931-4.9311 1.846 0 3.444 1.0193 4.298 2.5069l4.71-2.6171c-1.763-3.1404-5.151-5.2891-9.008-5.2891-5.7022 0-10.3302 4.628-10.3302 10.3304 0 5.7024 4.628 10.3304 10.3302 10.3304 3.884 0 7.245-2.1212 9.008-5.2892l-4.71-2.617ZM69.2956 1.52246h-5.8952V30.365h5.8952V1.52246Zm47.5754 0V30.365h5.895v-8.65l6.997 8.65h7.549l-8.898-10.2753 8.236-9.5867h-7.217l-6.667 7.9613V1.52246h-5.895ZM86.8171 22.8991c-.854 1.4049-2.617 2.4517-4.6005 2.4517-2.7272 0-4.931-2.2038-4.931-4.931 0-2.7273 2.2038-4.9311 4.931-4.9311 1.9835 0 3.7465 1.1019 4.6005 2.5344v4.876Zm0-12.3965v2.3415c-.9642-1.6253-3.3608-2.7547-5.8677-2.7547-5.179 0-9.256 4.5729-9.256 10.3028 0 5.73 4.077 10.358 9.256 10.358 2.5069 0 4.9035-1.1295 5.8677-2.7548v2.3416h5.8952V10.5026h-5.8952ZM22.4508 28.3138c2.0109 0 3.6363 1.6253 3.6363 3.6363s-1.6254 3.6363-3.6363 3.6363c-2.011 0-3.6363-1.6253-3.6363-3.6363v-3.6363h3.6363Zm0-1.8182c-2.011 0-3.6363-1.6253-3.6363-3.6363s1.6253-3.6363 3.6363-3.6363h9.0907c2.011 0 3.6363 1.6253 3.6363 3.6363s-1.6253 3.6363-3.6363 3.6363h-9.0907ZM7.85074 22.8593c0 2.011-1.62532 3.6363-3.63631 3.6363-2.01099 0-3.636305-1.6253-3.636305-3.6363S2.20344 19.223 4.21443 19.223h3.63631v3.6363Zm1.84653-.0001c-.00001-2.011 1.62533-3.6364 3.63633-3.6364s3.6363 1.6254 3.6363 3.6364v9.1183c0 2.011-1.6253 3.6363-3.6363 3.6363s-3.63633-1.6253-3.63633-3.6363v-9.1183ZM13.3336 8.28613c-2.011 0-3.63633-1.62532-3.63633-3.63631 0-2.01098 1.62533-3.6363 3.63633-3.6363s3.6363 1.62532 3.6363 3.6363v3.63631h-3.6363Zm-.0009 1.81817c2.011 0 3.6363 1.6254 3.6363 3.6363 0 2.011-1.6253 3.6364-3.6363 3.6364H4.21443c-2.01099 0-3.636305-1.6254-3.636305-3.6364 0-2.0109 1.625315-3.6363 3.636305-3.6363h9.11827Zm14.5716 3.6363c0-2.0109 1.6253-3.6363 3.6363-3.6363s3.6363 1.6254 3.6363 3.6363c0 2.011-1.6253 3.6364-3.6363 3.6364h-3.6363v-3.6364Zm-1.8172 0c0 2.011-1.6254 3.6364-3.6363 3.6364-2.011 0-3.6363-1.6254-3.6363-3.6364V4.62234c0-2.01099 1.6253-3.636309 3.6363-3.63631 2.0109 0 3.6363 1.62532 3.6363 3.63631v9.11826Z"/>
</svg>

<svg width="138" height="36" viewBox="0 0 138 36" fill="none" xmlns="http://www.w3.org/2000/svg">
<path d="M44.3105 28.2433L46.0185 24.2765C47.8642 25.6538 50.316 26.3701 52.7402 26.3701C54.5308 26.3701 55.6602 25.6814 55.6602 24.6346C55.6327 21.7145 44.9441 24.001 44.8615 16.6733C44.834 12.9543 48.1397 10.0894 52.8228 10.0894C55.6051 10.0894 58.3875 10.7781 60.3709 12.3483L58.7731 16.3978C56.955 15.2408 54.6961 14.4144 52.5473 14.4144C51.0873 14.4144 50.1231 15.103 50.1231 15.9846C50.1507 18.8495 60.9219 17.2793 61.032 24.2765C61.032 28.0781 57.809 30.7502 53.1809 30.7502C49.7926 30.7502 46.6797 29.9513 44.3105 28.2433Z" fill="#CFD1D7"/>
<path d="M109.847 22.844C108.993 24.3316 107.395 25.3508 105.549 25.3508C102.822 25.3508 100.618 23.147 100.618 20.4198C100.618 17.6925 102.822 15.4887 105.549 15.4887C107.395 15.4887 108.993 16.508 109.847 17.9956L114.557 15.3785C112.794 12.2381 109.406 10.0894 105.549 10.0894C99.8468 10.0894 95.2188 14.7174 95.2188 20.4198C95.2188 26.1222 99.8468 30.7502 105.549 30.7502C109.433 30.7502 112.794 28.629 114.557 25.461L109.847 22.844Z" fill="#CFD1D7"/>
<path d="M69.2956 1.52246H63.4004V30.365H69.2956V1.52246Z" fill="#CFD1D7"/>
<path d="M116.871 1.52246V30.365H122.766V21.715L129.763 30.365H137.312L128.414 20.0897L136.65 10.503H129.433L122.766 18.4643V1.52246H116.871Z" fill="#CFD1D7"/>
<path d="M86.8171 22.8991C85.9631 24.304 84.2001 25.3508 82.2166 25.3508C79.4894 25.3508 77.2856 23.147 77.2856 20.4198C77.2856 17.6925 79.4894 15.4887 82.2166 15.4887C84.2001 15.4887 85.9631 16.5906 86.8171 18.0231V22.8991ZM86.8171 10.5026V12.8441C85.8529 11.2188 83.4563 10.0894 80.9494 10.0894C75.7704 10.0894 71.6934 14.6623 71.6934 20.3922C71.6934 26.1222 75.7704 30.7502 80.9494 30.7502C83.4563 30.7502 85.8529 29.6207 86.8171 27.9954V30.337H92.7123V10.5026H86.8171Z" fill="#CFD1D7"/>
<path d="M22.4508 28.3138C24.4617 28.3138 26.0871 29.9391 26.0871 31.9501C26.0871 33.9611 24.4617 35.5864 22.4508 35.5864C20.4398 35.5864 18.8145 33.9611 18.8145 31.9501L18.8145 28.3138L22.4508 28.3138Z" fill="#CFD1D7"/>
<path d="M22.4508 26.4956C20.4398 26.4956 18.8145 24.8703 18.8145 22.8593C18.8145 20.8483 20.4398 19.223 22.4508 19.223L31.5415 19.223C33.5525 19.223 35.1778 20.8483 35.1778 22.8593C35.1778 24.8703 33.5525 26.4956 31.5415 26.4956L22.4508 26.4956Z" fill="#CFD1D7"/>
<path d="M7.85074 22.8593C7.85074 24.8703 6.22542 26.4956 4.21443 26.4956C2.20344 26.4956 0.578125 24.8703 0.578125 22.8593C0.578125 20.8483 2.20344 19.223 4.21443 19.223L7.85074 19.223L7.85074 22.8593Z" fill="#CFD1D7"/>
<path d="M9.69727 22.8592C9.69726 20.8482 11.3226 19.2228 13.3336 19.2228C15.3446 19.2228 16.9699 20.8482 16.9699 22.8592L16.9699 31.9775C16.9699 33.9885 15.3446 35.6138 13.3336 35.6138C11.3226 35.6138 9.69727 33.9885 9.69727 31.9775L9.69727 22.8592Z" fill="#CFD1D7"/>
<path d="M13.3336 8.28613C11.3226 8.28613 9.69727 6.66081 9.69727 4.64982C9.69727 2.63884 11.3226 1.01352 13.3336 1.01352C15.3446 1.01352 16.9699 2.63884 16.9699 4.64982L16.9699 8.28613L13.3336 8.28613Z" fill="#CFD1D7"/>
<path d="M13.3327 10.1043C15.3437 10.1043 16.969 11.7297 16.969 13.7406C16.969 15.7516 15.3437 17.377 13.3327 17.377L4.21443 17.377C2.20344 17.377 0.578125 15.7516 0.578125 13.7406C0.578125 11.7297 2.20344 10.1043 4.21443 10.1043L13.3327 10.1043Z" fill="#CFD1D7"/>
<path d="M27.9043 13.7406C27.9043 11.7297 29.5296 10.1043 31.5406 10.1043C33.5516 10.1043 35.1769 11.7297 35.1769 13.7406C35.1769 15.7516 33.5516 17.377 31.5406 17.377L27.9043 17.377L27.9043 13.7406Z" fill="#CFD1D7"/>
<path d="M26.0871 13.7406C26.0871 15.7516 24.4617 17.377 22.4508 17.377C20.4398 17.377 18.8145 15.7516 18.8145 13.7406L18.8145 4.62234C18.8145 2.61135 20.4398 0.986031 22.4508 0.98603C24.4617 0.98603 26.0871 2.61135 26.0871 4.62234L26.0871 13.7406Z" fill="#CFD1D7"/>
</svg>
